assets/icons/battery/8.svg

<?xml version="1.0" encoding="UTF-8" standalone="no"?>
<svg viewBox="0 0 24 24" height="24" id="svg7384" version="1.1" width="24" sodipodi:docname="level-80.svg" inkscape:version="1.1 (ce6663b3b7, 2021-05-25)"
   xmlns:inkscape="http://www.inkscape.org/namespaces/inkscape"
   xmlns:sodipodi="http://sodipodi.sourceforge.net/DTD/sodipodi-0.dtd"
   xmlns="http://www.w3.org/2000/svg"
   xmlns:svg="http://www.w3.org/2000/svg"
   xmlns:rdf="http://www.w3.org/1999/02/22-rdf-syntax-ns#"
   xmlns:cc="http://creativecommons.org/ns#"
   xmlns:dc="http://purl.org/dc/elements/1.1/">
   <sodipodi:namedview id="namedview22" pagecolor="#ffffff" bordercolor="#666666" borderopacity="1.0" inkscape:pageshadow="2" inkscape:pageopacity="0.0" inkscape:pagecheckerboard="0" showgrid="true" inkscape:snap-page="true" inkscape:zoom="27.999856" inkscape:cx="12.660779" inkscape:cy="9.5000489" inkscape:window-width="1920" inkscape:window-height="1043" inkscape:window-x="1920" inkscape:window-y="0" inkscape:window-maximized="1" inkscape:current-layer="svg7384">
      <inkscape:grid type="xygrid" id="grid931" />
   </sodipodi:namedview>
   <metadata id="metadata20854">
      <rdf:RDF>
         <cc:Work rdf:about="">
            <dc:format>image/svg+xml</dc:format>
            <dc:type rdf:resource="http://purl.org/dc/dcmitype/StillImage" />
         </cc:Work>
      </rdf:RDF>
   </metadata>
   <defs id="defs7386">
      <linearGradient id="linearGradient5606" inkscape:swatch="solid">
         <stop id="stop5608" offset="0" style="stop-color:#000000;stop-opacity:1;" />
      </linearGradient>
      <linearGradient id="linearGradient4526" inkscape:swatch="solid">
         <stop id="stop4528" offset="0" style="stop-color:#ffffff;stop-opacity:1;" />
      </linearGradient>
      <linearGradient id="linearGradient3600-4" inkscape:swatch="gradient">
         <stop id="stop3602-7" offset="0" style="stop-color:#f4f4f4;stop-opacity:1" />
         <stop id="stop3604-6" offset="1" style="stop-color:#dbdbdb;stop-opacity:1" />
      </linearGradient>
   </defs>
   <path id="path1347-7" style="color:#000000;fill:#808080;stroke-width:4;-inkscape-stroke:none" d="m 10,2 v 1 h -1.99414 c -0.4384,0 -0.785685,0.007 -1.078125,0.1171875 -0.29244,0.10978 -0.527576,0.3076737 -0.666016,0.5585937 -0.27688,0.50183 -0.252019,1.1162782 -0.261719,1.9550782 v 0.00195 l 0.03125,12.7031256 v 0.002 c 0.01,0.8388 -0.0151,1.451295 0.261719,1.953125 0.13844,0.25092 0.373576,0.450767 0.666016,0.560546 0.29244,0.109782 0.639725,0.148438 1.078125,0.148438 h 7.99414 c 0.43841,0 0.785685,-0.0386 1.078125,-0.148438 0.29244,-0.10978 0.525623,-0.309626 0.664062,-0.560546 0.27688,-0.50183 0.248113,-1.114325 0.257813,-1.953125 v -0.002 l -0.03125,-12.7031256 v -0.00195 c -0.01,-0.8388 0.019,-1.453248 -0.257813,-1.9550782 -0.138439,-0.2509198 -0.371622,-0.4488137 -0.664062,-0.5585937 -0.29244,-0.10967 -0.639715,-0.1171875 -1.078125,-0.1171875 h -2 v -1 z m -1.99414,2 h 7.99414 c 0.427369,0 0.662209,0.029334 0.724609,0.052734 0.0855,0.0321 0.126748,0.076799 0.142578,0.1054687 0.0951,0.1724 0.12036,0.6175994 0.13086,1.4746094 l 0.0332,12.6933599 v 0.01172 c -0.0102,0.85438 -0.0377,1.298304 -0.132813,1.470703 -0.0158,0.0287 -0.05519,0.0734 -0.140624,0.105468 -0.122831,0.04625 -0.348373,0.08594 -0.726563,0.08594 h -7.99414 c -0.37814,0 -0.603863,-0.03994 -0.726563,-0.08594 -0.0855,-0.0321 -0.126758,-0.0768 -0.142578,-0.105468 -0.0981,-0.1779 -0.126419,-0.620055 -0.136719,-1.484375 l -0.0332,-12.6914069 c 0.0102,-0.85282 0.0391,-1.2976494 0.136719,-1.4746094 0.0158,-0.0287 0.0571,-0.073399 0.142578,-0.1054687 0.0613,-0.0231 0.300756,-0.052734 0.728516,-0.052735 z" />
   <rect style="fill:#808080;fill-rule:evenodd;stroke-width:0.5;stroke-linecap:square" id="rect1141" width="8" height="11.2" x="8" y="7.8000011" />
</svg>

<svg height="24" width="24" xmlns="http://www.w3.org/2000/svg"><path style="color:#000;fill:gray;stroke-width:4;-inkscape-stroke:none" d="M10 2v1H8.006c-.439 0-.786.007-1.078.117-.293.11-.528.308-.666.559C5.985 4.178 6.01 4.792 6 5.63v.002l.031 12.703v.002c.01.839-.015 1.451.262 1.953.138.251.374.45.666.56.292.11.64.149 1.078.149h7.994c.439 0 .786-.039 1.078-.148.293-.11.526-.31.664-.56.277-.503.249-1.115.258-1.954v-.002L18 5.633V5.63c-.01-.839.019-1.453-.258-1.955a1.25 1.25 0 0 0-.664-.559C16.786 3.007 16.438 3 16 3h-2V2zM8.006 4H16c.427 0 .662.03.725.053a.266.266 0 0 1 .142.105c.095.173.12.618.131 1.475l.033 12.693v.012c-.01.854-.037 1.298-.133 1.47-.015.03-.055.074-.14.106-.123.046-.349.086-.727.086H8.037c-.378 0-.604-.04-.726-.086-.086-.032-.127-.077-.143-.105-.098-.178-.126-.62-.137-1.485L6.998 5.633c.01-.853.04-1.298.137-1.475a.266.266 0 0 1 .142-.105C7.34 4.03 7.578 4 8.006 4z"/><path style="fill:gray;stroke-width:.5;stroke-linecap:square" d="M8 7.8h8V19H8z"/></svg>
